!!!!SEGMENT: pl-kozmzk--mzk-m-346--053_walczynski-franciszek--cantantibus-organis-andante.krn
!!!cenid: 18xx:2848
!!!COM: Walczyński, Franciszek
!!!COM-rismid: pe30021989
!!!CDT: ~1852-1937
!!!CNT: Polish
!!!GTL: Cantantibus organis op. 10
!!!OTL: 53. Andante
!!!PDT: 1898
!!!AGN: Secular
!!!SMS-siglum: PL-KOZmzk
!!!SMS-shelfmark: mzk/m/346
!!!SMS-shelfwork: 053 G
!!!SMS-variant:
!!!SMS-altvar:
!!!NIFC-rismid: 1001109655
!!!URL-scan: https://repozytorium.nifc.pl/islandora/object/pl-kozmzk%3A7453/datastream/PDF/view
!!!ONB-nifc:
!!!OMD:Andante.
**kern	**kern	**dynam
*part2	*part1	*part1
*staff2	*staff1	*
*Iorgan	*Iempty	*
*I"[Organo]	*	*
*clefF4	*clefG2	*
*k[b-e-a-d-]	*k[b-e-a-d-]	*
*A-:	*A-:	*
*M3/4	*M3/4	*
=1	=1	=1
*^	*^	*
8E-/L	2.r	2.rg	2.r	p
8E-/J	.	.	.	.
4A-/	.	.	.	.
4A-/	.	.	.	.
*v	*v	*	*	*
=2	=2	=2	=2
!	!	!	!LO:DY:a
4B-/	2.rgg	8e-\L	p
.	.	8e-\J	.
2c^>/	.	4a-\	.
.	.	4a-\	.
=3	=3	=3	=3
*^	*	*	*
!	!	!	!	!LO:DY:a:rj
(>8e-/L	2.r	8b-/L	4g\	fp
8e-/J	.	8b-/J	.	.
4a-/	.	4cc/	2a-\	.
4g-X/)	.	4cc/	.	.
=4	=4	=4	=4	=4
!	!	!	!	!LO:DY:a:rj
(8f/L	2.r	(8dd-/L	4a-\	f
8d-/J	.	8ff/J	.	.
4e-/	.	4ee-/	4g\	.
4f/	.	4cc/	4a-\	.
=5	=5	=5	=5	=5
*	*	*	*	*^
!	!	!	!	!	!LO:HP:a
8B-/L	2.r	8dd-/L	8f\L	.	>
!	!	!	!	!LO:HP:b=2	!
16c/L	.	8b-/J	8g\J	>	.
16d-/JJ	.	.	.	.	.
8c/L)	.	4a-/)	4e-\	.	]
8B-'/	.	.	.	.	.
8A-'/	.	4r	4r	.	.
8F'/J	.	.	.	]	.
*	*	*	*	*v	*v
=6	=6	=6	=6	=6
8E-/L	2.r	2.r	2.r	p
8E-/J	.	.	.	.
4A-/	.	.	.	.
4A-/	.	.	.	.
=7	=7	=7	=7	=7
4B-/	2.r	2.rgg	8e-\L	.
.	.	.	8e-\J	.
2c^/	.	.	4a-\	.
.	.	.	4a-\	.
=8	=8	=8	=8	=8
*	*	*	*	*^
!	!LO:TX:i:b:t=Ped.	!	!	!LO:DY:b=2:rj	!LO:DY:rj
4e-/	(8E-\L	8b-/L	4g\	f	fp
.	8E-\J	8b-/J	.	.	>
2e-/	4A-\	4cc/	2a-\	.	.
.	4G-X\	4cc/	.	.	]]
*	*	*	*	*v	*v
!!LO:LB:g=original
=9	=9	=9	=9	=9
!	!	!	!	!LO:DY:a:rj
(4f/	8F\L	(8dd-/L	4a-\	f
.	8D-\J	8ff/J	.	.
4g/	4E-\	4ee-/	4b-\	.
[4f/	4F\	4cc/	4a-\	.
=10	=10	=10	=10	=10
8f/L]	8BB-\L	8dd-/L	8b-\L	.
16e-/L	8E-\J	8b-/J	8g\J	.
16d-/JJ	.	.	.	.
8c/)	8AA-\)	8a-/L)	8e-\	.
8r	8rc	8g'/	8r	.
4r	4rc	8a-'/	4r	.
.	.	8b-'/J	.	.
=11	=11	=11	=11	=11
4r	4ryy	(8cc/L	(8a-\L	pp
.	.	8dd-/J	8b-\J	.
(8c/L	(8A-\L	4ee-/	4cc\	.
8d-/J	8B-\J	.	.	.
4e-/	4c\	4cc/	4a-\	.
=12	=12	=12	=12	=12
4c/	8A-\L	8ee-/L	2a-\	.
.	8G-X\J	8ee-/J	.	.
4d-/	4F\	4dd-/	.	.
8e-/L	4E-\)	4b-/)	4g\)	.
8d-/J)	.	.	.	.
=13	=13	=13	=13	=13
4B-/	(4En\	(8dd-/L	4g\	fp
.	.	8dd-/J	.	.
4A-/	4F\	4cc/	4a-\	.
4c/	8F\L	4a-/	4f\	.
.	8E-X\J	.	.	.
=14	=14	=14	=14	=14
[4B-/	8Dn\L	8cc/L	8a-\L	p
.	8D\J	8cc/J	8a-\J	.
8B-/L]	2E-;\)	2b-;/)	2g\	.
8d-'/	.	.	.	.
8c'/	.	.	.	.
8B-'/J	.	.	.	.
=15	=15	=15	=15	=15
8E-/L	2.r	2.r	2.r	pp
8E-/J	.	.	.	.
4A-/	.	.	.	.
4A-/	.	.	.	.
=16	=16	=16	=16	=16
4B-/	2.r	2.rgg	8e-\L	.
.	.	.	8e-\J	.
2c^/	.	.	4a-\	.
.	.	.	4a-\	.
=17	=17	=17	=17	=17
!	!	!	!	!LO:DY:a:rj
8e-/L	2.r	8b-/L	4g\	fp
8e-/J	.	8b-/J	.	.
4a-/	.	4cc/	2a-^\	.
4a-/	.	4cc/	.	.
!!LO:LB:g=original
=18	=18	=18	=18	=18
!	!	!	!	!LO:DY:a
(4g/	2.r	(8ee-/L	4b-\	f
.	.	8ee-/J	.	.
4f/)	.	4aa-/	2a-^\	.
4f/	.	8cc/L	.	.
.	.	8dd-/J)	.	.
=19	=19	=19	=19	=19
!	!LO:TX:i:b:t=Ped.	!	!	!LO:DY:b=2:rj
(4g/	(8E-\L	(2ee-/	(4b-\	f
.	8E-\J	.	.	.
4a-/	4A-\	.	4cc\	.
8e-/L	8C\L	8ee-/L	8a-\L	.
8f/J	8D-\J	8dd-/J)	8b-\J	.
=20	=20	=20	=20	=20
2.e-/	[2.E-\	([2.cc/	2.a-\	.
=21	=21	=21	=21	=21
2.d-/	2E-\]	2cc/]	2.g\	.
.	4En\	4b-/	.	.
=22	=22	=22	=22	=22
2.c/)	4.F;\)	2.a-;/)	2.f\)	.
.	8C'\L	.	.	.
.	8AA-'\	.	.	.
.	8FF'\J	.	.	.
=23	=23	=23	=23	=23
!	!LO:TX:i:b:t=Ped.	!	!	!
2.r	8EE-\L	2.r	2.r	pp
.	8EE-\J	.	.	.
.	4AA-\	.	.	.
.	4AA-\	.	.	.
=24	=24	=24	=24	=24
8E-/L	8BB-\L	2.r	2.r	<
8E-/J	8BB-\J	.	.	.
4A-/	2C\	.	.	.
4A-/	.	.	.	[
*	*	*v	*v	*
=25	=25	=25	=25
!	!	!LO:TX:t=P:problem:pf się nie wyświetla	!LO:DY:a
8G/L 8E-/	8EE-\L	8B-/L	pf
8G/J 8E-/	8EE-\J	8B-/J	.
(8A-/L 8E-/	8AA-\L	4c/	.
8B-/J 8En/)	8GG\J	.	.
!LO:TX:b:i:t=rit.	!	!	!
4A-/ 4F/	4FF\	4c/	.
=26	=26	=26	=26
*	*	*^	*
!	!	!	!	!LO:DY:a:rj
4G/ 4E-X/	4EE-\	8e-^/L	(8B-\L	pp
.	.	8e-^/J	8d-\J)	.
2A-/	2E-\ 2AA-;\	2a-;/	2e-\ 2c\	.
*v	*v	*	*	*
*	*v	*v	*
==	==	==
*-	*-	*-
!!!system-decoration: {(s1,s2)}
!!!EED: Andrzej Borzym
!!!EST: 2021-08-09
!!!RDF**kern: > = above
!!!RDF**kern: < = below
!!!ENC: Andrzej Gręziak
!!!END: 2021-07-28
